src/assets/flags/pk.svg

<?xml version="1.0" encoding="UTF-8"?>
<svg xmlns="http://www.w3.org/2000/svg" xmlns:xlink="http://www.w3.org/1999/xlink" width="25px" height="px" viewBox="0 0 25 19" version="1.1">
<defs>
<clipPath id="clip1">
  <path d="M 0 0 L 24.996094 0 L 24.996094 19 L 0 19 Z M 0 0 "/>
</clipPath>
</defs>
<g id="surface1">
<g clip-path="url(#clip1)" clip-rule="nonzero">
<rect x="0" y="0" width="25" height="19" style="fill:rgb(4.705882%,34.901962%,4.313726%);fill-opacity:1;stroke:none;"/>
</g>
<path style=" stroke:none;fill-rule:evenodd;fill:rgb(100%,100%,100%);fill-opacity:1;" d="M -1.566406 0 L 5.484375 0 L 5.484375 19 L -1.566406 19 Z M -1.566406 0 "/>
<path style=" stroke:none;fill-rule:evenodd;fill:rgb(100%,100%,100%);fill-opacity:1;" d="M 16.699219 8.363281 L 15.554688 8.121094 L 14.953125 9.132812 L 14.832031 7.960938 L 13.695312 7.691406 L 14.757812 7.210938 L 14.660156 6.035156 L 15.441406 6.910156 L 16.515625 6.449219 L 15.933594 7.472656 L 16.703125 8.363281 Z M 16.699219 8.363281 "/>
<path style=" stroke:none;fill-rule:evenodd;fill:rgb(100%,100%,100%);fill-opacity:1;" d="M 17.125 11.355469 C 16.636719 12.445312 15.734375 13.292969 14.625 13.707031 C 13.515625 14.121094 12.289062 14.066406 11.21875 13.558594 C 10.144531 13.054688 9.308594 12.136719 8.898438 11.011719 C 8.492188 9.882812 8.542969 8.632812 9.039062 7.542969 C 9.542969 6.410156 10.492188 5.546875 11.65625 5.15625 C 11.503906 5.285156 11.359375 5.421875 11.222656 5.5625 C 9.738281 7.230469 9.824219 9.789062 11.414062 11.351562 C 13.007812 12.910156 15.535156 12.914062 17.128906 11.355469 Z M 17.125 11.355469 "/>
</g>
</svg>

<svg xmlns="http://www.w3.org/2000/svg" width="25" height="px" viewBox="0 0 25 19"><defs><clipPath id="a"><path d="M0 0h24.996v19H0Zm0 0"/></clipPath></defs><g clip-path="url(#a)"><path d="M0 0h25v19H0z" style="fill:#0c590b;fill-opacity:1;stroke:none"/></g><path d="M-1.566 0h7.05v19h-7.05ZM16.7 8.363l-1.145-.242-.602 1.012-.121-1.172-1.137-.27 1.063-.48-.098-1.176.781.875 1.075-.46-.582 1.023.77.89Zm0 0" style="stroke:none;fill-rule:evenodd;fill:#fff;fill-opacity:1"/><path d="M17.125 11.355a4.45 4.45 0 0 1-2.5 2.352 4.37 4.37 0 0 1-3.406-.148 4.52 4.52 0 0 1-2.32-2.547 4.62 4.62 0 0 1 .14-3.469 4.4 4.4 0 0 1 2.617-2.387 6 6 0 0 0-.433.407 4.21 4.21 0 0 0 .191 5.789 4.077 4.077 0 0 0 5.715.003Zm0 0" style="stroke:none;fill-rule:evenodd;fill:#fff;fill-opacity:1"/></svg>
